packages/katcn/src/icons/svg/receipt-solid.svg

<svg width="24" height="24" viewBox="0 0 24 24" fill="none" xmlns="http://www.w3.org/2000/svg">
<path d="M12 21.991C11.8 21.991 11.6 21.891 11.4 21.7911L8.5 19.692L5.6 21.7911C5.3 21.991 4.9 21.991 4.6 21.891C4.2 21.6911 4 21.3913 4 20.9914V5.49842C4 3.49932 5.5 2 7.3 2H16.6C18.5 2 20 3.49932 20 5.49842V20.9914C20 21.3913 19.8 21.6911 19.5 21.891C19.2 22.0909 18.8 21.991 18.5 21.7911L15.6 19.692L12.7 21.7911C12.4 21.891 12.2 21.991 12 21.991Z" fill="black"/>
<path d="M11.5 14.2C11.3 14.2 11 14.1 10.9 14L8.90005 12.4C8.50005 12 8.40005 11.3 8.80005 10.9C9.20005 10.5 9.80005 10.4 10.2 10.8L11.4 11.8L13.7 9.2C14.1 8.8 14.7 8.8 15.1 9.1C15.5001 9.5 15.5 10.1 15.2 10.5L12.3001 13.9C12.1 14.1 11.8 14.2 11.5 14.2Z" fill="white"/>
</svg>

<svg xmlns="http://www.w3.org/2000/svg" fill="none" viewBox="0 0 24 24"><path fill="#000" d="M12 21.991c-.2 0-.4-.1-.6-.2l-2.9-2.099-2.9 2.1c-.3.199-.7.199-1 .099q-.6-.3-.6-.9V5.498C4 3.5 5.5 2 7.3 2h9.3C18.5 2 20 3.5 20 5.498v15.493c0 .4-.2.7-.5.9s-.7.1-1-.1l-2.9-2.099-2.9 2.1c-.3.099-.5.199-.7.199"/><path fill="#fff" d="M11.5 14.2c-.2 0-.5-.1-.6-.2l-2-1.6c-.4-.4-.5-1.1-.1-1.5s1-.5 1.4-.1l1.2 1 2.3-2.6c.4-.4 1-.4 1.4-.1.4.4.4 1 .1 1.4l-2.9 3.4c-.2.2-.5.3-.8.3"/></svg>
